brandFactory_export/2.Regular/Loop_2Regular.svg

<?xml version="1.0" encoding="UTF-8"?>
<svg width="24px" height="24px" viewBox="0 0 24 24" version="1.1" xmlns="http://www.w3.org/2000/svg" xmlns:xlink="http://www.w3.org/1999/xlink">
    <title>2.Regular/Loop_2Regular</title>
    <g id="Symbols" stroke="none" stroke-width="1" fill="none" fill-rule="evenodd">
        <g id="2.Regular/Loop_2Regular" fill="#5CB615" fill-rule="nonzero">
            <path d="M20.3260504,11.7966387 C18.7798319,13.1277311 16.2789916,14.1193277 12.8941176,14.7445378 C11.5630252,14.989916 10.3361345,15.1277311 9.21680672,15.1714286 C9.02857143,13.8739496 7.95966387,13.1579832 6.20168067,12.9865546 C5.97647059,12.9630252 5.76134454,12.9529412 5.55630252,12.9529412 C4.56470588,12.9529412 3.80168067,13.2151261 3.30420168,13.7462185 C2.39663866,13.0201681 1.81848739,12.0386555 1.57647059,10.7310924 C1.21680672,8.77142857 1.77478992,7.18487395 3.2907563,5.88067227 C4.83697479,4.54957983 7.33445378,3.55798319 10.7159664,2.93277311 C14.097479,2.30756303 16.7831933,2.34117647 18.7058824,3.03361345 C20.5848739,3.71260504 21.6773109,4.99327731 22.0369748,6.94957983 C22.4033613,8.90588235 21.8420168,10.492437 20.3260504,11.7966387 M5.83529412,16.7848739 C4.01008403,16.6067227 4.07394958,15.9344538 4.1210084,15.4436975 C4.16806723,14.9663866 4.21848739,14.4252101 5.55630252,14.4252101 C5.71764706,14.4252101 5.88235294,14.4352941 6.05714286,14.4521008 C7.88571429,14.6302521 7.82184874,15.302521 7.77142857,15.7966387 C7.72436975,16.2739496 7.67394958,16.8117647 6.33613445,16.8117647 C6.18151261,16.8117647 6.01008403,16.8016807 5.83529412,16.7848739 M23.4890756,6.68067227 C23.0319328,4.19663866 21.5932773,2.50252101 19.210084,1.64201681 C17.0420168,0.862184874 14.097479,0.805042017 10.4571429,1.48067227 C6.81680672,2.15294118 4.08403361,3.25546218 2.3394958,4.76134454 C0.420168067,6.41176471 -0.319327731,8.5092437 0.137815126,10.9966387 C0.467226891,12.7915966 1.33109244,14.1798319 2.68907563,15.1378151 C2.68235294,15.194958 2.66554622,15.2453782 2.66218487,15.302521 C2.4907563,17.097479 3.62016807,18.0521008 5.69747899,18.2537815 C5.92268908,18.2773109 6.13781513,18.287395 6.34285714,18.287395 C6.66218487,18.287395 6.9512605,18.2537815 7.22352941,18.2 C7.44537815,18.5966387 7.64705882,19.1310924 7.50252101,19.6420168 C7.28403361,20.4084034 6.34621849,20.9361345 5.59663866,21.2453782 C5.22016807,21.4 5.04201681,21.8302521 5.19663866,22.2067227 C5.31428571,22.492437 5.58655462,22.6638655 5.87563025,22.6638655 C5.9697479,22.6638655 6.06386555,22.6470588 6.15462185,22.6067227 C7.68403361,21.9781513 8.61176471,21.1142857 8.91428571,20.0420168 C9.13613445,19.2655462 8.98823529,18.4016807 8.53445378,17.5546218 C8.77983193,17.312605 8.96806723,17.0134454 9.09243697,16.6436975 C10.3327731,16.610084 11.6941176,16.4621849 13.1663866,16.189916 C16.8067227,15.5176471 19.5394958,14.4151261 21.287395,12.912605 C23.2033613,11.2621849 23.9462185,9.16470588 23.4890756,6.68067227" id="Loop_2Regular"></path>
        </g>
    </g>
</svg>

<svg width="24" height="24" viewBox="0 0 24 24" xmlns="http://www.w3.org/2000/svg"><path d="M20.326 11.797c-1.546 1.33-4.047 2.322-7.432 2.948a25.944 25.944 0 01-3.677.426c-.188-1.297-1.257-2.013-3.015-2.184a6.202 6.202 0 00-.646-.034c-.991 0-1.754.262-2.252.793-.907-.726-1.486-1.707-1.728-3.015-.36-1.96.199-3.546 1.715-4.85 1.546-1.331 4.043-2.323 7.425-2.948 3.381-.625 6.067-.592 7.99.1 1.879.68 2.971 1.96 3.331 3.917.366 1.956-.195 3.542-1.71 4.847M5.834 16.785c-1.825-.178-1.761-.85-1.714-1.341.047-.478.097-1.019 1.435-1.019.162 0 .326.01.501.027 1.829.178 1.765.85 1.714 1.345-.047.477-.097 1.015-1.435 1.015-.154 0-.326-.01-.5-.027M23.488 6.68c-.457-2.484-1.896-4.178-4.279-5.039-2.168-.78-5.113-.837-8.753-.161-3.64.672-6.373 1.774-8.118 3.28C.42 6.411-.319 8.51.138 10.997c.33 1.795 1.193 3.183 2.551 4.14-.007.058-.023.108-.027.166-.171 1.794.958 2.75 3.035 2.95.226.024.44.034.646.034.32 0 .608-.033.88-.087.222.397.424.931.28 1.442-.219.766-1.157 1.294-1.906 1.603a.736.736 0 00.558 1.362c1.529-.629 2.457-1.493 2.76-2.565.221-.776.073-1.64-.38-2.487.245-.242.433-.542.557-.911a26.462 26.462 0 004.074-.454c3.64-.672 6.373-1.775 8.121-3.277 1.916-1.65 2.66-3.748 2.202-6.232" fill="#5CB615" fill-rule="nonzero"/></svg>
